X:92
T:Malcolm Hughs Arrival
R:reel
C:Paul S. Cranford
O:Cape Breton Island
S:http://www.cranfordpub.com
D:currently unrecorded
B:currently unpublished in book form
Z:psc, (re-formatted,updated 9/17/04)
N:
H:                                                        copyrights Cranford Publications, SOCAN
L:1/8
Q:333
M:C|
K:G
GE|D(B, ~B,2) DEGB|AGED {D}G2 AB|cEcd e2 ec|dBGB A2 GE|
DG,B,D GABG|AGED {D}G2 AB|cGcd (e/f/g) fe|dBAB G2:|
|:Bc|dGBd gdga|bagf gdBd|(e/f/g) cB cGEG|[1FDFA {B/c/}d2 Bc|
dG (3(Bcd) gdga|bagf gdBd|(e/f/g) cB cege|dBAB G2:|
[2FDFA dcBA|GG,B,A, G,DGB|AGED GA (3(Bcd)|edcB cege|dBAB G2|]
